img/vk.svg

<svg width="21" height="12" viewBox="0 0 21 12" fill="none" xmlns="http://www.w3.org/2000/svg">
<path d="M17.4262 6.88114C17.0867 6.46114 17.1838 6.27429 17.4262 5.89886C17.4306 5.89457 20.2333 2.10086 20.5221 0.814286L20.5238 0.813428C20.6673 0.344571 20.5238 0 19.8299 0H17.5339C16.9493 0 16.6798 0.295714 16.5354 0.626571C16.5354 0.626571 15.3664 3.36771 13.7126 5.14457C13.1788 5.658 12.9321 5.82257 12.6407 5.82257C12.4972 5.82257 12.2741 5.658 12.2741 5.18914V0.813428C12.2741 0.251143 12.1104 0 11.6265 0H8.01615C7.64952 0 7.43163 0.262286 7.43163 0.506572C7.43163 1.03971 8.25854 1.16229 8.34429 2.66229V5.91686C8.34429 6.63 8.21216 6.76114 7.91902 6.76114C7.1385 6.76114 5.24406 4.00886 4.12139 0.858857C3.89476 0.247714 3.67338 0.000857081 3.08448 0.000857081H0.787527C0.13213 0.000857081 0 0.296571 0 0.627428C0 1.212 0.780527 4.11857 3.62963 7.95857C5.52844 10.5797 8.20253 12 10.6351 12C12.0973 12 12.2758 11.6846 12.2758 11.142C12.2758 8.63743 12.1437 8.40086 12.8761 8.40086C13.2156 8.40086 13.8001 8.56543 15.1652 9.82971C16.7253 11.3289 16.9817 12 17.855 12H20.1511C20.8056 12 21.1372 11.6846 20.9465 11.0623C20.5098 9.75343 17.5592 7.06114 17.4262 6.88114Z"/>
</svg>

<svg width="21" height="12" fill="none" xmlns="http://www.w3.org/2000/svg"><path d="M17.426 6.881c-.34-.42-.242-.607 0-.982.005-.004 2.807-3.798 3.096-5.085h.002c.143-.47 0-.814-.694-.814h-2.296c-.585 0-.854.296-.999.627 0 0-1.169 2.74-2.822 4.518-.534.513-.78.678-1.072.678-.144 0-.367-.165-.367-.634V.813c0-.562-.164-.813-.647-.813h-3.61c-.367 0-.585.262-.585.507 0 .533.827.655.912 2.155v3.255c0 .713-.132.844-.425.844-.78 0-2.675-2.752-3.798-5.902C3.895.248 3.673 0 3.084 0H.788C.132 0 0 .297 0 .627 0 1.212.78 4.12 3.63 7.96 5.528 10.579 8.203 12 10.635 12c1.462 0 1.64-.315 1.64-.858 0-2.505-.131-2.741.601-2.741.34 0 .924.164 2.29 1.429 1.56 1.499 1.816 2.17 2.689 2.17h2.296c.655 0 .986-.315.796-.938-.437-1.309-3.388-4-3.52-4.18z"/></svg>
